X:1
T:Kirkwood
T:Kirkwood
T:William Batchelder Bradbury (1816-1868)
T:Public Domain Courtesy of the Cyber Hymnal™
C:William Batchelder Bradbury (1816-1868)
Z:Public Domain
Z:Courtesy of the Cyber Hymnal™
%%score ( 1 2 ) ( 3 4 )
L:1/8
M:4/4
K:G
V:1 treble 
V:2 treble 
V:3 bass 
V:4 bass 
V:1
 [DG]2 [DG]>[DA] [DB]2 [Gc]2 | c4 B2 [GB]2 | [Bd]2 [GB]2 [FA]2 [Ac]2 | [GB]8 | %4
 [FA]2 [FA][GB] [Ac]2 [DF]2 | [EG]4 [FA]4 | [GB]8 | [Ge]2 [Ge][Ge] [Gd]2 [Gd]2 | %8
 [Ad]2 [Fc]2 [GB]2 [FA]2 | G3 [GA] [GB]2 A2 | [DG]8 |] %11
V:2
 x8 | G6 x2 | x8 | x8 | x8 | x8 | x8 | x8 | x8 | x6 (FD) | x8 |] %11
V:3
 [G,B,]2 [G,B,]>[G,C] [G,D]2 [G,E]2 | E4 D4 | D8 | [G,D]8 | z8 | %5
 [E,B,]2 [E,B,][E,B,] [D,D]2 [D,D]2 | [G,D]2 [G,D]2 [G,D]4 | C2 [E,C][F,C] [G,B,]2 [G,B,]2 | %8
 [F,A,]2 [D,A,]2 G,2 [D,D]2 | [B,,D]2 [C,E]2 [D,D]2 [D,C]2 | [G,,B,]8 |] %11
V:4
 x8 | (G,2 G,2) G,2 G,2 | D,6 D,2 | x8 | x8 | x8 | x8 | (C,D,) x6 | x8 | x8 | x8 |] %11

